src/topics/icons/poeditor.svg

<svg height="207" preserveAspectRatio="xMidYMid" viewBox="0 0 256 207" width="256" xmlns="http://www.w3.org/2000/svg"><path d="m59.914744 19.972099h112.567094v143.432266h-112.567094z" fill="#fff" transform="matrix(1 0 0 -1 0 183.376462)"/><path d="m61.2673646 206.978723h-61.2673646v-26.131906c0-43.89572 35.5494147-77.357197 79.3961136-77.357197h73.1322994c11.020682 0 19.953425 8.9509 19.953425 19.982475v25.091569h-34.006156c-35.258919 0-70.0693849 24.949952-77.2083174 58.415059" fill="#24c1ce" transform="matrix(1 0 0 -1 0 310.468344)"/><path d="m59.9147438 12.5517485c0 39.5981989 39.0099451 70.9662906 78.5609382 70.9662906h34.006156c-.005446 11.0261285-8.932743 19.9715809-19.957056 19.9715809h-73.1286684c-43.8466989 0-79.3961136-33.4560294-79.3961136-77.3571963v-26.13190625h61.2673646c-.867856 4.07057138-1.3526208 8.26097225-1.3526208 12.55123105" fill="#3dd0ad" transform="matrix(1 0 0 -1 0 103.490138)"/><path d="m123.460684 74.4400477c-10.027549 0-18.155983-8.1248024-18.155983-18.155983 0-10.0221026 8.128434-18.155983 18.155983-18.155983 10.025734 0 18.155983 8.1338804 18.155983 18.155983 0 10.0311806-8.130249 18.155983-18.155983 18.155983" fill="#404953" transform="matrix(1 0 0 -1 0 112.56813)"/><path d="m116.198291 54.4684664c-3.003 0-5.446795-2.4419797-5.446795-5.4413481 0-3.0048152 2.443795-5.4522417 5.446795-5.4522417s5.446795 2.4474265 5.446795 5.4522417c0 2.9993684-2.443795 5.4413481-5.446795 5.4413481" fill="#fff" transform="matrix(1 0 0 -1 0 98.043342)"/><path d="m101.673505 87.1492357h49.021154v14.5247863h-49.021154z" fill="#404953" transform="matrix(1 0 0 -1 0 188.823258)"/><path d="m32.6844006 121.645603c-10.0221026 0-18.155983-8.137511-18.155983-18.159614-.0036312-10.0221024 8.1302492-18.1523516 18.1523518-18.1523516 10.0257338 0 18.1559829 8.1338804 18.1559829 18.1523516 0 10.022103-8.1284335 18.159614-18.1559829 18.159614" fill="#ffda00" transform="matrix(1 0 0 -1 0 206.97924)"/><path d="m230.541041 155.769773c-16.104357 16.104357-36.96195 24.554152-58.059203 25.376618v-90.2352356l58.059203-58.0592024c33.944425 33.9426102 33.944425 88.97521 0 122.916005zm-58.059203-92.6372715v-43.1604028c11.307546.6118566 22.477107 4.266656 32.176033 10.9843697z" fill="#404953" transform="matrix(1 0 0 -1 0 201.11849)"/><path d="m61.2673646 187.007295h-1.3526208v-59.141299c0-13.515314 10.9553202-24.423428 24.4706339-24.376223l88.0964603.330439v24.772023h-34.006156c-35.258919 0-70.0693849 24.949952-77.2083174 58.41506" fill="#3a4287" transform="matrix(1 0 0 -1 0 290.496916)"/></svg>

<?xml version="1.0" encoding="UTF-8"?>
<svg width="256px" height="207px" viewBox="0 0 256 207" version="1.1" xmlns="http://www.w3.org/2000/svg" xmlns:xlink="http://www.w3.org/1999/xlink" preserveAspectRatio="xMidYMid">
		<g>
				<rect fill="#FFFFFF" transform="translate(116.198291, 91.688231) scale(-1, 1) rotate(-180.000000) translate(-116.198291, -91.688231) " x="59.9147438" y="19.9720987" width="112.567094" height="143.432266"></rect>
				<path d="M61.2673646,206.978723 L7.10542736e-15,206.978723 L7.10542736e-15,180.846817 C7.10542736e-15,136.951097 35.5494147,103.48962 79.3961136,103.48962 L152.528413,103.48962 C163.549095,103.48962 172.481838,112.44052 172.481838,123.472095 L172.481838,148.563664 L138.475682,148.563664 C103.216763,148.563664 68.4062971,173.513616 61.2673646,206.978723" fill="#24C1CE" transform="translate(86.240919, 155.234172) scale(-1, 1) rotate(-180.000000) translate(-86.240919, -155.234172) "></path>
				<path d="M59.9147438,12.5517485 C59.9147438,52.1499474 98.9246889,83.5180391 138.475682,83.5180391 L172.481838,83.5180391 C172.476392,94.5441676 163.549095,103.48962 152.524782,103.48962 L79.3961136,103.48962 C35.5494147,103.48962 0,70.0335906 0,26.1324237 L0,0.000517446809 L61.2673646,0.000517446809 C60.3995086,4.07108883 59.9147438,8.2614897 59.9147438,12.5517485" fill="#3DD0AD" transform="translate(86.240919, 51.745069) scale(-1, 1) rotate(-180.000000) translate(-86.240919, -51.745069) "></path>
				<path d="M123.460684,74.4400477 C113.433135,74.4400477 105.304701,66.3152453 105.304701,56.2840647 C105.304701,46.2619621 113.433135,38.1280817 123.460684,38.1280817 C133.486418,38.1280817 141.616667,46.2619621 141.616667,56.2840647 C141.616667,66.3152453 133.486418,74.4400477 123.460684,74.4400477" fill="#404953" transform="translate(123.460684, 56.284065) scale(-1, 1) rotate(-180.000000) translate(-123.460684, -56.284065) "></path>
				<path d="M116.198291,54.4684664 C113.195291,54.4684664 110.751496,52.0264867 110.751496,49.0271183 C110.751496,46.0223031 113.195291,43.5748766 116.198291,43.5748766 C119.201291,43.5748766 121.645086,46.0223031 121.645086,49.0271183 C121.645086,52.0264867 119.201291,54.4684664 116.198291,54.4684664" fill="#FFFFFF" transform="translate(116.198291, 49.021671) scale(-1, 1) rotate(-180.000000) translate(-116.198291, -49.021671) "></path>
				<polygon fill="#404953" transform="translate(126.184082, 94.411629) scale(-1, 1) rotate(-180.000000) translate(-126.184082, -94.411629) " points="101.673505 87.1492357 150.694659 87.1492357 150.694659 101.674022 101.673505 101.674022"></polygon>
				<path d="M32.6844006,121.645603 C22.662298,121.645603 14.5284176,113.508092 14.5284176,103.485989 C14.5247864,93.4638866 22.6586668,85.3336374 32.6807694,85.3336374 C42.7065032,85.3336374 50.8367523,93.4675178 50.8367523,103.485989 C50.8367523,113.508092 42.7083188,121.645603 32.6807694,121.645603" fill="#FFDA00" transform="translate(32.682584, 103.489620) scale(-1, 1) rotate(-180.000000) translate(-32.682584, -103.489620) "></path>
				<path d="M230.541041,155.769773 C214.436684,171.87413 193.579091,180.323925 172.481838,181.146391 L172.481838,90.9111554 L230.541041,32.851953 C264.485466,66.7945632 264.485466,121.827163 230.541041,155.767958 L230.541041,155.769773 Z M172.481838,63.1325015 L172.481838,19.9720987 C183.789384,20.5839553 194.958945,24.2387547 204.657871,30.9564684 L172.481838,63.1325015 Z" fill="#404953" transform="translate(214.240599, 100.559245) scale(-1, 1) rotate(-180.000000) translate(-214.240599, -100.559245) "></path>
				<path d="M61.2673646,187.007295 L59.9147438,187.007295 L59.9147438,127.865996 C59.9147438,114.350682 70.870064,103.442568 84.3853777,103.489773 L172.481838,103.820212 L172.481838,128.592235 L138.475682,128.592235 C103.216763,128.592235 68.4062971,153.542187 61.2673646,187.007295" fill="#3A4287" transform="translate(116.198291, 145.248458) scale(-1, 1) rotate(-180.000000) translate(-116.198291, -145.248458) "></path>
		</g>
</svg>
